X:1
T:[ID 3-19b]
T:[ID 3-19b]
T:Bezeichnung standardisiert: Polonaise Polonoise 13.
T:Urheber unbekannt Datum in der hier transkribierten schriftlichen Quelle: 1767
C:Urheber unbekannt
C:Datum in der hier transkribierten schriftlichen Quelle: 1767
%%score 1 2
L:1/8
M:3/4
K:D
V:1 treble nm="Primo"
V:2 treble nm="Secondo"
V:1
 af/a/ ge/g/ f2 | AF/A/ GE/G/ F2 | Ad/c/ Be/f/ gB | Ae/d/ cf/g/ aA | Bgecdg | f/e/d/c/ d2 D2 :: %6
"^O)" (A/G/F/G/) (A/G/F/G/) AD | B2 Tc3/2B/4c/4 d2 |"^O)" (A/G/F/G/) (A/G/F/G/) AD | %9
 B2 Tc3/2B/4c/4 d2 | gg/f/ ff/e/ e2 | GG/F/ FF/E/ E2 | Ad/c/ Bgec | c/d/e/c/ d2 D2 :| %14
V:2
 !fermata!fd/f/ ec/e/ d2 | fd/f/ ec/e/ d2 | FB/A/ Gc/d/ eG | Fc/B/ Ad/e/ fF | G2 dA Fe |"^1)" x6 :: %6
"^O)" (F/E/D/E/) (F/E/D/E/) FF | G2 E3/2D/4E/4 F2 |"^O)" (F/E/D/E/) (F/E/D/E/) FF | %9
 G2 E3/2D/4E/4 F2 | ee/d/ dd/c/ c2 | ee/d/ dd/c/ c2 | AF/E/ G2 cA | E/F/G/E/ F2 F2 :| %14

